svg/color/4play.svg

<?xml version="1.0" encoding="UTF-8" ?>
<!DOCTYPE svg PUBLIC "-//W3C//DTD SVG 1.1//EN" "http://www.w3.org/Graphics/SVG/1.1/DTD/svg11.dtd">
<svg width="250pt" height="250pt" viewBox="0 0 250 250" version="1.1" xmlns="http://www.w3.org/2000/svg">
<g id="#fdfefeff">
<path fill="#fdfefe" opacity="1.00" d=" M 0.00 0.00 L 114.44 0.00 C 66.46 4.58 22.29 37.94 6.94 83.98 C 3.03 93.78 2.26 104.39 0.00 114.58 L 0.00 0.00 Z" />
<path fill="#fdfefe" opacity="1.00" d=" M 136.57 0.00 L 250.00 0.00 L 250.00 112.57 C 248.55 107.47 248.09 102.16 246.98 96.99 C 235.95 45.18 188.87 5.25 136.57 0.00 Z" />
<path fill="#fdfefe" opacity="1.00" d=" M 118.40 54.50 C 130.77 53.20 144.33 56.70 153.30 65.70 C 157.54 69.86 157.63 79.04 151.94 81.93 C 129.88 95.41 106.95 107.43 84.84 120.83 C 77.31 127.53 74.72 138.94 78.85 148.18 C 64.10 140.28 46.37 133.26 38.67 117.32 C 34.15 108.25 38.76 97.10 46.98 91.97 C 62.67 83.02 78.10 73.62 93.90 64.85 C 101.65 60.56 109.17 54.81 118.40 54.50 Z" />
<path fill="#fdfefe" opacity="1.00" d=" M 146.39 94.46 C 161.23 92.24 181.43 95.62 187.98 111.09 C 189.36 121.19 176.93 123.43 172.20 130.20 C 163.55 139.09 168.20 153.97 177.17 160.83 C 183.77 168.18 199.02 171.61 197.70 183.70 C 190.60 198.79 169.49 196.86 155.90 192.12 C 140.34 184.35 125.67 174.86 110.31 166.68 C 100.29 160.74 88.61 155.06 85.04 142.90 C 81.54 127.33 97.96 120.06 108.89 113.84 C 121.44 107.61 132.73 98.09 146.39 94.46 Z" />
<path fill="#fdfefe" opacity="1.00" d=" M 0.00 136.43 C 3.82 164.31 14.78 191.87 35.21 211.79 C 55.22 233.49 83.43 246.14 112.43 250.00 L 0.00 250.00 L 0.00 136.43 Z" />
<path fill="#fdfefe" opacity="1.00" d=" M 165.33 243.47 C 210.80 228.68 244.16 185.70 250.00 138.57 L 250.00 250.00 L 137.43 250.00 C 146.69 247.65 156.40 247.09 165.33 243.47 Z" />
</g>
<g id="#32a97eff">
<path fill="#32a97e" opacity="1.00" d=" M 114.44 0.00 L 136.57 0.00 C 188.87 5.25 235.95 45.18 246.98 96.99 C 248.09 102.16 248.55 107.47 250.00 112.57 L 250.00 138.57 C 244.16 185.70 210.80 228.68 165.33 243.47 C 156.40 247.09 146.69 247.65 137.43 250.00 L 112.43 250.00 C 83.43 246.14 55.22 233.49 35.21 211.79 C 14.78 191.87 3.82 164.31 0.00 136.43 L 0.00 114.58 C 2.26 104.39 3.03 93.78 6.94 83.98 C 22.29 37.94 66.46 4.58 114.44 0.00 M 118.40 54.50 C 109.17 54.81 101.65 60.56 93.90 64.85 C 78.10 73.62 62.67 83.02 46.98 91.97 C 38.76 97.10 34.15 108.25 38.67 117.32 C 46.37 133.26 64.10 140.28 78.85 148.18 C 74.72 138.94 77.31 127.53 84.84 120.83 C 106.95 107.43 129.88 95.41 151.94 81.93 C 157.63 79.04 157.54 69.86 153.30 65.70 C 144.33 56.70 130.77 53.20 118.40 54.50 M 146.39 94.46 C 132.73 98.09 121.44 107.61 108.89 113.84 C 97.96 120.06 81.54 127.33 85.04 142.90 C 88.61 155.06 100.29 160.74 110.31 166.68 C 125.67 174.86 140.34 184.35 155.90 192.12 C 169.49 196.86 190.60 198.79 197.70 183.70 C 199.02 171.61 183.77 168.18 177.17 160.83 C 168.20 153.97 163.55 139.09 172.20 130.20 C 176.93 123.43 189.36 121.19 187.98 111.09 C 181.43 95.62 161.23 92.24 146.39 94.46 Z" />
</g>
</svg>

<?xml version="1.0" encoding="utf-8"?>
<!-- Generator: Adobe Illustrator 26.0.3, SVG Export Plug-In . SVG Version: 6.00 Build 0)  -->
<svg version="1.1" id="Layer_1" xmlns="http://www.w3.org/2000/svg" xmlns:xlink="http://www.w3.org/1999/xlink" x="0px" y="0px"
	 viewBox="0 0 250 250" style="enable-background:new 0 0 250 250;" xml:space="preserve">
<style type="text/css">
	.st0{fill:#FDFEFE;}
	.st1{fill:#32A97E;}
</style>
<g id="_x23_fdfefeff">
	<path class="st0" d="M118.4,54.5c12.4-1.3,25.9,2.2,34.9,11.2c4.2,4.2,4.3,13.3-1.4,16.2c-22.1,13.5-45,25.5-67.1,38.9
		c-7.5,6.7-10.1,18.1-6,27.3c-14.8-7.9-32.5-14.9-40.2-30.9c-4.5-9.1,0.1-20.2,8.3-25.3c15.7-9,31.1-18.3,46.9-27.1
		C101.7,60.6,109.2,54.8,118.4,54.5z"/>
	<path class="st0" d="M146.4,94.5c14.8-2.2,35,1.2,41.6,16.6c1.4,10.1-11.1,12.3-15.8,19.1c-8.6,8.9-4,23.8,5,30.6
		c6.6,7.3,21.9,10.8,20.5,22.9c-7.1,15.1-28.2,13.2-41.8,8.4c-15.6-7.8-30.2-17.3-45.6-25.4c-10-5.9-21.7-11.6-25.3-23.8
		c-3.5-15.6,12.9-22.8,23.8-29.1C121.4,107.6,132.7,98.1,146.4,94.5z"/>
</g>
<g id="_x23_32a97eff">
	<path class="st1" d="M114.4,0h22.1c52.3,5.2,99.4,45.2,110.4,97c1.1,5.2,1.6,10.5,3,15.6v26c-5.8,47.1-39.2,90.1-84.7,104.9
		c-8.9,3.6-18.6,4.2-27.9,6.5h-25c-29-3.9-57.2-16.5-77.2-38.2C14.8,191.9,3.8,164.3,0,136.4v-21.8C2.3,104.4,3,93.8,6.9,84
		C22.3,37.9,66.5,4.6,114.4,0 M118.4,54.5c-9.2,0.3-16.8,6.1-24.5,10.3C78.1,73.6,62.7,83,47,92c-8.2,5.1-12.8,16.3-8.3,25.3
		c7.7,15.9,25.4,23,40.2,30.9c-4.1-9.2-1.5-20.6,6-27.3c22.1-13.4,45-25.4,67.1-38.9c5.7-2.9,5.6-12.1,1.4-16.2
		C144.3,56.7,130.8,53.2,118.4,54.5 M146.4,94.5c-13.7,3.6-24.9,13.2-37.5,19.4C98,120.1,81.5,127.3,85,142.9
		c3.6,12.2,15.2,17.8,25.3,23.8c15.4,8.2,30,17.7,45.6,25.4c13.6,4.7,34.7,6.7,41.8-8.4c1.3-12.1-13.9-15.5-20.5-22.9
		c-9-6.9-13.6-21.7-5-30.6c4.7-6.8,17.2-9,15.8-19.1C181.4,95.6,161.2,92.2,146.4,94.5z"/>
</g>
</svg>
